X:4
T:The Auld Fiddler
C:W McGuire
N:W McGuire is possibly Billy McGuire, box player
D:Filska "Time and Tide"
S:http://www.shetland-music.com/mp3down.htm
Z:Steve Wyrick  scots-l 2002-7-31
Z:Bunjie's Dilemma Set, Tune #4
L:1/8
%Q:460
M:C
R:Reel
K:A
(3efg|:a2ed cdBc|ABcd eaga|be (3eee c'e (3eee|d'ec'e befg|!
a2ed cdBc|ABcd eaga|be (3eee ^de=de|1ceBc A4:||!
|2ceBc A2GA ||BE (3EEE BEcE|dEeE dEcE|BE (3EEE BEcE|dBGB A2GA|!
BE (3EEE cE (3EEE|dEeE dEcE| B2 (3EEE ^DE=DE| CEB,C A,2GA|!
BE (3EEE BEcE|dEeE dEcE|BE (3EEE BEcE|dBGB A2GA|!
BE (3EEE cE (3EEE|dAeA fAgA|ae (3eee ^defe|^defg a2||
